set cps 1

d1
  $ stutWith 2 (0.125*3) ((# lpf 2000) . (# room 0.5))
  $ s "~ bend"
  # gain 1.2
  # size 0.9

d2 $ s "bd:1(3,8)" # lpf 800 # room 0.5 # size 0.7 # gain 1.2

d3 $ s "future:3/2" # lpf 3000 # room 0.5 # size 0.9

hush
